X: 20131
Q: "Slow"
M: C
L: 1/8
K: D
(d/e/f/g/) |\
a3b (a<f)e>d | (Te>d)(ef) B3d |\
g3{c'}d' {b}af{f}ed |
{a}gf{f}ed {c}B2 Tf>e |\
(dB)(AF) (AB)(de) | {de}f2(Te>d) d2 :|\
|: (A>G) |\
(F>E)(F>A) (B>A)(B>d) | (e>d)ef B3b |
a>ba{g}f ({ef}gf){f}Ted | g>a (b/a/g/f/) {f}e2a>g |\
fabc' {e'}Hd'3b | {b}af{f}Ted {c}B2f>e |\
(dB)(AF) (AB)(de) | {de}f2Te>d d2 :|


